portfolio-htmlcssjs/img/ico_about.svg

<svg fill="none" height="18" viewBox="0 0 17 18" width="17" xmlns="http://www.w3.org/2000/svg"><path d="m13.8125 7.04143c0 1.51361-.4947 2.91181-1.3281 4.04617l4.2035 4.1781c.415.4122.415 1.0816 0 1.4938s-1.0891.4122-1.5041 0l-4.2035-4.1781c-1.14222.831-2.55003 1.3191-4.07405 1.3191-3.81504 0-6.90625-3.0701-6.90625-6.85907s3.09121-6.859057 6.90625-6.859057c3.81505 0 6.90625 3.070087 6.90625 6.859057zm-6.90625 4.74857c.62788 0 1.24962-.1228 1.8297-.3615.58009-.2386 1.10717-.5884 1.55115-1.0293.444-.44096.7962-.96444 1.0364-1.54057.2403-.57612.364-1.19361.364-1.8172s-.1237-1.24108-.364-1.8172c-.2402-.57612-.5924-1.0996-1.0364-1.54055-.44398-.44095-.97106-.79072-1.55115-1.02936-.58008-.23864-1.20182-.36147-1.8297-.36147s-1.24962.12283-1.82971.36147c-.58008.23864-1.10716.58841-1.55114 1.02936s-.79617.96443-1.03645 1.54055-.36395 1.19361-.36395 1.8172.12367 1.24108.36395 1.8172c.24028.57613.59247 1.09961 1.03645 1.54057.44398.4409.97106.7907 1.55114 1.0293.58009.2387 1.20183.3615 1.82971.3615z" fill="#fff"/></svg>

<svg width="17" height="18" viewBox="0 0 17 18" fill="none" xmlns="http://www.w3.org/2000/svg">
<path d="M13.8125 7.04143C13.8125 8.55504 13.3178 9.95324 12.4844 11.0876L16.6879 15.2657C17.1029 15.6779 17.1029 16.3473 16.6879 16.7595C16.2729 17.1717 15.5988 17.1717 15.1838 16.7595L10.9803 12.5814C9.83808 13.4124 8.43027 13.9005 6.90625 13.9005C3.09121 13.9005 0 10.8304 0 7.04143C0 3.25246 3.09121 0.182373 6.90625 0.182373C10.7213 0.182373 13.8125 3.25246 13.8125 7.04143ZM6.90625 11.79C7.53413 11.79 8.15587 11.6672 8.73595 11.4285C9.31604 11.1899 9.84312 10.8401 10.2871 10.3992C10.7311 9.95824 11.0833 9.43476 11.3235 8.85863C11.5638 8.28251 11.6875 7.66502 11.6875 7.04143C11.6875 6.41784 11.5638 5.80035 11.3235 5.22423C11.0833 4.64811 10.7311 4.12463 10.2871 3.68368C9.84312 3.24273 9.31604 2.89296 8.73595 2.65432C8.15587 2.41568 7.53413 2.29285 6.90625 2.29285C6.27837 2.29285 5.65663 2.41568 5.07654 2.65432C4.49646 2.89296 3.96938 3.24273 3.5254 3.68368C3.08142 4.12463 2.72923 4.64811 2.48895 5.22423C2.24867 5.80035 2.125 6.41784 2.125 7.04143C2.125 7.66502 2.24867 8.28251 2.48895 8.85863C2.72923 9.43476 3.08142 9.95824 3.5254 10.3992C3.96938 10.8401 4.49646 11.1899 5.07654 11.4285C5.65663 11.6672 6.27837 11.79 6.90625 11.79Z" fill="white"/>
</svg>
